!!!COM:	Busnoys, Antoine
!!!CDT:	~1430///-1492/11/06
!!!OTL:	On a grant mal / On est bien malade
!!!AGN:	Song; Chanson
!!!SCT:	Bus3046
!!!SCA:	Bus3046
!!!voices:	4
**kern	**kern	**kern	**kern
*staff4	*staff3	*staff2	*staff1
*Ivox	*Ivox	*Ivox	*Ivox
*I"Contratenor	*I"Tenor II	*I"Tenor I	*I"Superius
*I'Ct	*I'T	*I'T	*I'S
*clefF4	*clefGv2	*clefGv2	*clefG2
*k[b-]	*k[]	*k[b-]	*k[]
*M2/1	*M2/1	*M2/1	*M2/1
*met(C|)	*met(C|)	*met(C|)	*met(C|)
=1-	=1-	=1-	=1-
!!LO:TX:Z=34:t=Rondeau ("On a grant mal" text)
!	!	!LO:TX:Y=22:t=On est bien malade	!
!	!	!	!LO:TX:Y=22:t=On a grant mal
0r	0r	1c	1g
.	.	1c	1a
=2	=2	=2	=2
!	!LO:TX:Y=22:t=On est bien malade	!	!
0r	1G	1d	1b
.	1G	1e	1b
=3	=3	=3	=3
0r	1A	1f	2a
.	.	.	1cc
.	1B	2e	.
.	.	2d	4b
.	.	.	4a
=4	=4	=4	=4
!LO:TX:Y=22:t=On est bien malade	!	!	!
1C	1.c	0e	2g
.	.	.	2.a
1C	.	.	.
.	.	.	4b
.	2B	.	2g
=5	=5	=5	=5
1D	1A	0r	1f
1E	1G	.	1g
=6	=6	=6	=6
1F	1A	0r	1f
2E	1A	.	1f
2D	.	.	.
=7	=7	=7	=7
1E	0G	1r	1.g
2D	.	1e	.
2C	.	.	4f
.	.	.	4e
=8	=8	=8	=8
1BB-	0r	1f	1d
1BB-	.	2e	1d
.	.	2d	.
=9	=9	=9	=9
1C	1r	1e	2G
.	.	.	2.c
1E	[1G	2d	.
.	.	.	4B
.	.	2c	2c
=10	=10	=10	=10
0D	1G]	1B-	2d
.	.	.	1f
.	1F	1B-	.
.	.	.	4e
.	.	.	4d
=11	=11	=11	=11
[0C	0G	1.c	0e
.	.	[2g	.
=12	=12	=12	=12
0C]	0r	2g]	1r
.	.	4f	.
.	.	4g	.
.	.	2.a	1cc
.	.	4g	.
=13	=13	=13	=13
0r	1r	2.e	1b
.	.	4d	.
.	1c	2.e	1a
.	.	4f	.
=14	=14	=14	=14
0r	1B	2d	1g
.	.	1g	.
.	1A	.	1cc
.	.	2f#i	.
=15	=15	=15	=15
0r	1G	1.g	2.b
.	.	.	4g
.	1c	.	[1a
.	.	4f	.
.	.	4e	.
=16	=16	=16	=16
1r	2.B	1d	2a]
.	.	.	1g
.	4G	.	.
1F	1A	1r	.
.	.	.	2f
=17	=17	=17	=17
1E	1G	1r	2g
.	.	.	2.c
1D	1r	1f	.
.	.	.	4B
.	.	.	4B
.	.	.	4A
=18	=18	=18	=18
1CNy	1rNy	1eNy	1cNy
1F	1A	1d	1r
=19	=19	=19	=19
2.E	2G	1c	0r
.	1c	.	.
4C	.	.	.
1D	.	1f	.
.	2B	.	.
=20	=20	=20	=20
1C	1c	2.e	2.g
.	.	4c	4a
1G	1r	1d	2b
.	.	.	4a
.	.	.	4b
=21	=21	=21	=21
1A	0A	1c	1.cc
1F	.	1f	.
.	.	.	[2a
=22	=22	=22	=22
0G	1B-i	1e	2a]
.	.	.	2g
.	1B-i	2d	2g
.	.	[2d	2f
=23	=23	=23	=23
0D	1A	2d]	0a
.	.	4c	.
.	.	4B-	.
.	1F	1A	.
=24	=24	=24	=24
0r	1G	1G	1b-
.	1A	2r	1a
.	.	2c	.
=25	=25	=25	=25
1r	1.B-i	2B-	1f
.	.	1d	.
1G	.	.	1g
.	4A	2e	.
.	4G	.	.
=26	=26	=26	=26
1D	0F	1.f	1a
1D	.	.	1a
.	.	2e	.
=27	=27	=27	=27
0G	0r	2d	1.b-i
.	.	1d	.
.	.	4c	4a
.	.	4B-	4g
=28	=28	=28	=28
0D	0r	1A	0f
.	.	2B-	.
.	.	[2d	.
=29	=29	=29	=29
1E-	1.G	2d]	1r
.	.	2c	.
1E-i	.	2c	1g
.	4F	2B-	.
.	4G	.	.
=30	=30	=30	=30
1D	2A	0d	1f
.	2.F	.	.
1BB-	.	.	2e
.	4D	.	.
.	[2G	.	2d
=31	=31	=31	=31
1C	4G]	1e	1c
.	4E	.	.
.	1A	.	.
1D	.	1d	1f
.	4G	.	.
.	4F	.	.
=32	=32	=32	=32
1.E-	2E-i	1B-	1.g
.	1G	.	.
.	.	1c	.
4D	4F	.	2a
4C	4E-i	.	.
=33	=33	=33	=33
0BB-	2D	1d	2.b-i
.	2C	.	.
.	.	.	4a
.	1D	1d	2.g
.	.	.	4f
=34	=34	=34	=34
1r	0C	1.e-i	2g
.	.	.	1g
1C	.	.	.
.	.	4d	4f
.	.	4c	4e
=35	=35	=35	=35
0G	0r	0B-	1d
.	.	.	1r
=36	=36	=36	=36
0C	0r	1c	1g
.	.	1c	1a
=37	=37	=37	=37
0GG	1G	1d	1b-i
.	1G	1e	1b-i
=38	=38	=38	=38
0r	1A	1f	1.a
.	1B	2e	.
.	.	2d	2g
=39	=39	=39	=39
1C	1.c	0e	1.g
1C	.	.	.
.	2B	.	2e
=40	=40	=40	=40
1D	1A	0r	1f
1E	1G	.	1g
=41	=41	=41	=41
1F	1A	0r	1f
2E	1A	.	1f
2D	.	.	.
=42	=42	=42	=42
1E	0G	1r	1.g
2D	.	1e	.
2C	.	.	4f
.	.	.	4e
=43	=43	=43	=43
1BB-	0r	1f	1.d
1BB-	.	2e	.
.	.	2d	2c
=44	=44	=44	=44
1C	1r	1e	1.c
1E	[1G	2d	.
.	.	2c	[2g
=45	=45	=45	=45
0D	1G]	1B-	2g]
.	.	.	4f
.	.	.	4e
.	1F	1B-	2f
.	.	.	4e
.	.	.	4d
=46	=46	=46	=46
1C	1G	1c	1e
1GG	1B	[1d	2d
.	.	.	[2g
=47	=47	=47	=47
0D	0A	2d]	2g]
.	.	2c	2f#i
.	.	1A	2f#i
.	.	.	2e
=48	=48	=48	=48
0GGl	0Gl	0Bn 0dl	0gl
==	==	==	==
*-	*-	*-	*-
!!!RDF**kern: l=long note in original notation
!!!RDF**kern: i=editorial accidental
!!!RDF**kern: N=signum congruentiae
!!!ENC:	Chris Gage 04-15-2015
!!!END:	2015/05/12/
!!!EED:	Jesse Rodin
!!!EEV:	2015/09/21/
!!!ONB:	Translated from MusicXML and edited on 2015/09/21/ by Craig Sapp
!!muse2ps: C^@{COM}^i2I150v85,85,85,150Q16
